apps/48/audio-player.svg

<?xml version="1.0" encoding="UTF-8" standalone="no"?>
<!-- Created with Inkscape (http://www.inkscape.org/) -->

<svg
   xmlns:svg="http://www.w3.org/2000/svg"
   xmlns="http://www.w3.org/2000/svg"
   xmlns:xlink="http://www.w3.org/1999/xlink"
   version="1.0"
   width="48"
   height="48"
   id="svg11172">
  <defs
     id="defs11174">
    <linearGradient
       id="linearGradient8838">
      <stop
         id="stop8840"
         style="stop-color:black;stop-opacity:1"
         offset="0" />
      <stop
         id="stop8842"
         style="stop-color:black;stop-opacity:0"
         offset="1" />
    </linearGradient>
    <radialGradient
       cx="62.625"
       cy="4.625"
       r="10.625"
       fx="62.625"
       fy="4.625"
       id="radialGradient2612"
       xlink:href="#linearGradient8838"
       gradientUnits="userSpaceOnUse"
       gradientTransform="matrix(1,0,0,0.341176,0,3.047059)" />
    <linearGradient
       id="linearGradient2490-532-649-691-926-291-773">
      <stop
         id="stop11035"
         style="stop-color:#245a71;stop-opacity:1"
         offset="0" />
      <stop
         id="stop11037"
         style="stop-color:#498bd2;stop-opacity:1"
         offset="1" />
    </linearGradient>
    <linearGradient
       x1="15.046636"
       y1="44.787998"
       x2="15.046636"
       y2="3.8851264"
       id="linearGradient3722-654-507-728-209-749-106"
       xlink:href="#linearGradient2490-532-649-691-926-291-773"
       gradientUnits="userSpaceOnUse"
       gradientTransform="matrix(1.0051426,0,0,1.0051197,-0.2286603,-0.01235769)" />
    <linearGradient
       id="linearGradient3242-62-192-227-214-440-158">
      <stop
         id="stop11025"
         style="stop-color:#9a9af9;stop-opacity:1"
         offset="0" />
      <stop
         id="stop11027"
         style="stop-color:#708ade;stop-opacity:1"
         offset="0.26238" />
      <stop
         id="stop11029"
         style="stop-color:#4777ba;stop-opacity:1"
         offset="0.66093999" />
      <stop
         id="stop11031"
         style="stop-color:#194263;stop-opacity:1"
         offset="1" />
    </linearGradient>
    <radialGradient
       cx="61.341709"
       cy="-6.1398492"
       r="9.7552834"
       fx="61.341709"
       fy="-6.1398492"
       id="radialGradient3724-220-597-264-558-243-961"
       xlink:href="#linearGradient3242-62-192-227-214-440-158"
       gradientUnits="userSpaceOnUse"
       gradientTransform="matrix(0,4.523581,-4.3653221,0,-4.1595525,-273.48419)" />
    <linearGradient
       id="linearGradient4873">
      <stop
         id="stop4875"
         style="stop-color:white;stop-opacity:1"
         offset="0" />
      <stop
         id="stop4877"
         style="stop-color:white;stop-opacity:0"
         offset="1" />
    </linearGradient>
    <linearGradient
       x1="63.397362"
       y1="-12.486685"
       x2="63.397362"
       y2="7.4434662"
       id="linearGradient3726"
       xlink:href="#linearGradient4873"
       gradientUnits="userSpaceOnUse"
       gradientTransform="matrix(2.1725458,0,0,2.1724962,-111.63324,32.127275)" />
  </defs>
  <g
     id="layer1">
    <path
       d="m 73.25,4.625 a 10.625,3.625 0 1 1 -21.25,0 10.625,3.625 0 1 1 21.25,0 z"
       transform="matrix(2.149872,0,0,2.5636643,-111.38573,26.849769)"
       id="path8836"
       style="opacity:0.4;fill:url(#radialGradient2612);fill-opacity:1;fill-rule:evenodd;stroke:none;stroke-width:0.99999988;marker:none;visibility:visible;display:inline;overflow:visible" />
    <path
       d="m 43.500002,24.499292 c 0,11.046051 -8.954965,20.000709 -19.99975,20.000709 -11.045794,0 -20.0002519,-8.95476 -20.0002519,-20.000709 0,-11.045543 8.9544579,-19.9992918 20.0002519,-19.9992918 11.044785,0 19.99975,8.9537488 19.99975,19.9992918 l 0,0 z"
       id="path6495"
       style="fill:url(#radialGradient3724-220-597-264-558-243-961);fill-opacity:1;fill-rule:nonzero;stroke:url(#linearGradient3722-654-507-728-209-749-106);stroke-width:1;stroke-miterlimit:4;stroke-dasharray:none" />
    <path
       d="m 42.500001,24.499325 c 0,10.493749 -8.507216,19.000673 -18.99976,19.000673 -10.493505,0 -19.0002409,-8.507021 -19.0002409,-19.000673 0,-10.493264 8.5067359,-18.9993253 19.0002409,-18.9993253 10.492544,0 18.99976,8.5060613 18.99976,18.9993253 l 0,0 z"
       id="path8655"
       style="opacity:0.4;fill:none;stroke:url(#linearGradient3726);stroke-width:1;stroke-miterlimit:4;stroke-opacity:1;stroke-dasharray:none" />
    <path
       d="m -19.415211,22.686497 a 13.025395,13.025395 0 1 1 -26.050789,0 13.025395,13.025395 0 1 1 26.050789,0 z"
       transform="matrix(0.9596638,0,0,0.9596638,54.632075,2.7285895)"
       id="path3199"
       style="opacity:0.25;fill:black;fill-opacity:1;stroke:none" />
    <path
       d="m -135.111,14.485592 c 0.0493,0.131923 -4.42025,5.298444 -4.51077,5.406318 -0.0914,0.108917 -4.44446,5.456746 -4.58468,5.433219 -0.13888,-0.0233 -2.37846,-6.477273 -2.42662,-6.6096 -0.0486,-0.133607 -2.50345,-6.577388 -2.41297,-6.687061 0.0896,-0.108621 6.79872,1.178829 6.9374,1.203282 0.14002,0.02469 6.94791,1.120643 6.99764,1.253842 z"
       transform="matrix(0.8393967,0.3141763,-0.3055154,0.8631928,148.83729,53.94484)"
       id="path3218"
       style="fill:white;fill-opacity:1;stroke:none" />
  </g>
</svg>

<?xml version="1.0" encoding="UTF-8" standalone="no"?>
<!-- Created with Inkscape (http://www.inkscape.org/) -->
<svg
   xmlns:svg="http://www.w3.org/2000/svg"
   xmlns="http://www.w3.org/2000/svg"
   xmlns:xlink="http://www.w3.org/1999/xlink"
   version="1.0"
   width="48"
   height="48"
   id="svg11172">
  <defs
     id="defs11174">
    <linearGradient
       id="linearGradient8838">
      <stop
         id="stop8840"
         style="stop-color:#000000;stop-opacity:1"
         offset="0" />
      <stop
         id="stop8842"
         style="stop-color:#000000;stop-opacity:0"
         offset="1" />
    </linearGradient>
    <radialGradient
       cx="62.625"
       cy="4.625"
       r="10.625"
       fx="62.625"
       fy="4.625"
       id="radialGradient2612"
       xlink:href="#linearGradient8838"
       gradientUnits="userSpaceOnUse"
       gradientTransform="matrix(1,0,0,0.341176,0,3.047059)" />
    <linearGradient
       id="linearGradient2490-532-649-691-926-291-773">
      <stop
         id="stop11035"
         style="stop-color:#245a71;stop-opacity:1"
         offset="0" />
      <stop
         id="stop11037"
         style="stop-color:#498bd2;stop-opacity:1"
         offset="1" />
    </linearGradient>
    <linearGradient
       x1="15.046636"
       y1="44.787998"
       x2="15.046636"
       y2="3.8851264"
       id="linearGradient3722-654-507-728-209-749-106"
       xlink:href="#linearGradient2490-532-649-691-926-291-773"
       gradientUnits="userSpaceOnUse"
       gradientTransform="matrix(1.0051426,0,0,1.0051197,-0.2286603,-1.235769e-2)" />
    <linearGradient
       id="linearGradient3242-62-192-227-214-440-158">
      <stop
         id="stop11025"
         style="stop-color:#9a9af9;stop-opacity:1"
         offset="0" />
      <stop
         id="stop11027"
         style="stop-color:#708ade;stop-opacity:1"
         offset="0.26238" />
      <stop
         id="stop11029"
         style="stop-color:#4777ba;stop-opacity:1"
         offset="0.66093999" />
      <stop
         id="stop11031"
         style="stop-color:#194263;stop-opacity:1"
         offset="1" />
    </linearGradient>
    <radialGradient
       cx="61.341709"
       cy="-6.1398492"
       r="9.7552834"
       fx="61.341709"
       fy="-6.1398492"
       id="radialGradient3724-220-597-264-558-243-961"
       xlink:href="#linearGradient3242-62-192-227-214-440-158"
       gradientUnits="userSpaceOnUse"
       gradientTransform="matrix(0,4.523581,-4.3653221,0,-4.1595525,-273.48419)" />
    <linearGradient
       id="linearGradient4873">
      <stop
         id="stop4875"
         style="stop-color:#ffffff;stop-opacity:1"
         offset="0" />
      <stop
         id="stop4877"
         style="stop-color:#ffffff;stop-opacity:0"
         offset="1" />
    </linearGradient>
    <linearGradient
       x1="63.397362"
       y1="-12.486685"
       x2="63.397362"
       y2="7.4434662"
       id="linearGradient3726"
       xlink:href="#linearGradient4873"
       gradientUnits="userSpaceOnUse"
       gradientTransform="matrix(2.1725458,0,0,2.1724962,-111.63324,32.127275)" />
  </defs>
  <g
     id="layer1">
    <path
       d="M 73.25,4.625 A 10.625,3.625 0 1 1 52,4.625 A 10.625,3.625 0 1 1 73.25,4.625 z"
       transform="matrix(2.149872,0,0,2.5636643,-111.38573,26.849769)"
       id="path8836"
       style="opacity:0.4;fill:url(#radialGradient2612);fill-opacity:1;fill-rule:evenodd;stroke:none;stroke-width:0.99999988;stroke-linecap:butt;stroke-linejoin:round;marker:none;marker-start:none;marker-mid:none;marker-end:none;stroke-miterlimit:4;stroke-dasharray:none;stroke-dashoffset:0;stroke-opacity:1;visibility:visible;display:inline;overflow:visible" />
    <path
       d="M 43.500002,24.499292 C 43.500002,35.545343 34.545037,44.500001 23.500252,44.500001 C 12.454458,44.500001 3.5000001,35.545241 3.5000001,24.499292 C 3.5000001,13.453749 12.454458,4.5000002 23.500252,4.5000002 C 34.545037,4.5000002 43.500002,13.453749 43.500002,24.499292 L 43.500002,24.499292 z"
       id="path6495"
       style="fill:url(#radialGradient3724-220-597-264-558-243-961);fill-opacity:1;fill-rule:nonzero;stroke:url(#linearGradient3722-654-507-728-209-749-106);stroke-width:1;stroke-miterlimit:4;stroke-dasharray:none" />
    <path
       d="M 42.500001,24.499325 C 42.500001,34.993074 33.992785,43.499998 23.500241,43.499998 C 13.006736,43.499998 4.5000001,34.992977 4.5000001,24.499325 C 4.5000001,14.006061 13.006736,5.4999997 23.500241,5.4999997 C 33.992785,5.4999997 42.500001,14.006061 42.500001,24.499325 L 42.500001,24.499325 z"
       id="path8655"
       style="opacity:0.4;fill:none;fill-opacity:1;fill-rule:nonzero;stroke:url(#linearGradient3726);stroke-width:1;stroke-miterlimit:4;stroke-dasharray:none;stroke-opacity:1" />
    <path
       d="M -19.415211,22.686497 A 13.025394,13.025394 0 1 1 -45.466,22.686497 A 13.025394,13.025394 0 1 1 -19.415211,22.686497 z"
       transform="matrix(0.9596638,0,0,0.9596638,54.632075,2.7285895)"
       id="path3199"
       style="opacity:0.25;fill:#000000;fill-opacity:1;stroke:none;stroke-width:1.01289296;stroke-linecap:round;stroke-linejoin:round;stroke-miterlimit:0;stroke-dasharray:none;stroke-opacity:1" />
    <path
       d="M -135.111,14.485592 C -135.06174,14.617515 -139.53125,19.784036 -139.62177,19.89191 C -139.71316,20.000827 -144.06623,25.348656 -144.20645,25.325129 C -144.34533,25.301828 -146.58491,18.847856 -146.63307,18.715529 C -146.6817,18.581922 -149.13652,12.138141 -149.04604,12.028468 C -148.95642,11.919847 -142.24732,13.207297 -142.10864,13.23175 C -141.96862,13.25644 -135.16073,14.352393 -135.111,14.485592 z"
       transform="matrix(0.8393967,0.3141763,-0.3055154,0.8631928,148.83729,53.94484)"
       id="path3218"
       style="fill:#ffffff;fill-opacity:1;stroke:none;stroke-width:1.09590471;stroke-linecap:round;stroke-linejoin:round;stroke-miterlimit:0;stroke-dasharray:none;stroke-dashoffset:0;stroke-opacity:1" />
  </g>
</svg>
